Simply white circles/scalable/mimes/x-office-address-book.svg

<?xml version="1.0" encoding="UTF-8" standalone="no"?>
<!-- Created with Inkscape (http://www.inkscape.org/) -->

<svg
   xmlns:dc="http://purl.org/dc/elements/1.1/"
   xmlns:cc="http://creativecommons.org/ns#"
   xmlns:rdf="http://www.w3.org/1999/02/22-rdf-syntax-ns#"
   xmlns:svg="http://www.w3.org/2000/svg"
   xmlns="http://www.w3.org/2000/svg"
   xmlns:xlink="http://www.w3.org/1999/xlink"
   xmlns:sodipodi="http://sodipodi.sourceforge.net/DTD/sodipodi-0.dtd"
   xmlns:inkscape="http://www.inkscape.org/namespaces/inkscape"
   version="1.1"
   width="48"
   height="48"
   id="svg21744"
   sodipodi:docname="x-office-address-book.svg"
   inkscape:version="0.92.3 (2405546, 2018-03-11)">
  <sodipodi:namedview
     pagecolor="#ffffff"
     bordercolor="#666666"
     borderopacity="1"
     objecttolerance="10"
     gridtolerance="10"
     guidetolerance="10"
     inkscape:pageopacity="0"
     inkscape:pageshadow="2"
     inkscape:window-width="1366"
     inkscape:window-height="719"
     id="namedview44"
     showgrid="false"
     inkscape:zoom="11.083333"
     inkscape:cx="24"
     inkscape:cy="24"
     inkscape:window-x="0"
     inkscape:window-y="25"
     inkscape:window-maximized="1"
     inkscape:current-layer="svg21744"
     inkscape:snap-global="false" />
  <defs
     id="defs21746">
    <linearGradient
       x1="525.4375"
       y1="836.1875"
       x2="516.65625"
       y2="828.5"
       id="linearGradient14113"
       xlink:href="#linearGradient14494-2-7"
       gradientUnits="userSpaceOnUse"
       gradientTransform="translate(-125.5,-1702.64)" />
    <linearGradient
       id="linearGradient14494-2-7">
      <stop
         id="stop14496-9-3"
         style="stop-color:#dc85e9;stop-opacity:1"
         offset="0" />
      <stop
         id="stop14498-9-7"
         style="stop-color:#f2cbf8;stop-opacity:1"
         offset="1" />
    </linearGradient>
    <linearGradient
       x1="520.58502"
       y1="735.05206"
       x2="516.15179"
       y2="720.86298"
       id="linearGradient14115"
       xlink:href="#linearGradient14494-5"
       gradientUnits="userSpaceOnUse" />
    <linearGradient
       id="linearGradient14494-5">
      <stop
         id="stop14496-5"
         style="stop-color:#dc85e9;stop-opacity:1"
         offset="0" />
      <stop
         id="stop14498-1"
         style="stop-color:#f2cbf8;stop-opacity:1"
         offset="1" />
    </linearGradient>
    <linearGradient
       x1="525.4375"
       y1="836.1875"
       x2="516.65625"
       y2="828.5"
       id="linearGradient54948"
       xlink:href="#linearGradient14494-2-7"
       gradientUnits="userSpaceOnUse"
       gradientTransform="translate(-462.50049,-802.00385)" />
    <linearGradient
       x1="520.58502"
       y1="735.05206"
       x2="516.15179"
       y2="720.86298"
       id="linearGradient14109"
       xlink:href="#linearGradient14494-5"
       gradientUnits="userSpaceOnUse"
       gradientTransform="matrix(0.512535,0,0,0.615385,-202.35949,-422.92385)" />
    <linearGradient
       x1="525.4375"
       y1="836.1875"
       x2="516.65625"
       y2="828.5"
       id="linearGradient54952"
       xlink:href="#linearGradient14494-2-7"
       gradientUnits="userSpaceOnUse"
       gradientTransform="translate(-462.50049,-797.50385)" />
    <linearGradient
       x1="209.0625"
       y1="-765.46082"
       x2="209.0625"
       y2="-781.62268"
       id="linearGradient44039"
       xlink:href="#linearGradient15606-1"
       gradientUnits="userSpaceOnUse"
       gradientTransform="matrix(1.5,0,0,1.5,-364.99949,1176.9562)" />
    <linearGradient
       id="linearGradient15606-1">
      <stop
         id="stop15608-0"
         style="stop-color:#ffffff;stop-opacity:0.58823502"
         offset="0" />
      <stop
         id="stop15610-5"
         style="stop-color:#ffffff;stop-opacity:0.86274499"
         offset="1" />
    </linearGradient>
    <linearGradient
       x1="294.3429"
       y1="256.58133"
       x2="294.41818"
       y2="243.13852"
       id="linearGradient44042"
       xlink:href="#linearGradient10286-3"
       gradientUnits="userSpaceOnUse"
       gradientTransform="matrix(2.99213,0,0,3.00466,-830.71149,-727.44385)" />
    <linearGradient
       id="linearGradient10286-3">
      <stop
         id="stop10288-8"
         style="stop-color:#b3b3b3;stop-opacity:1"
         offset="0" />
      <stop
         id="stop10290-7"
         style="stop-color:#e6e6e6;stop-opacity:1"
         offset="1" />
    </linearGradient>
    <linearGradient
       x1="110.96875"
       y1="976.29968"
       x2="110.96875"
       y2="992.375"
       id="linearGradient43236"
       xlink:href="#linearGradient4145-42"
       gradientUnits="userSpaceOnUse" />
    <linearGradient
       id="linearGradient4145-42">
      <stop
         id="stop4953"
         style="stop-color:#e694bb;stop-opacity:1"
         offset="0" />
      <stop
         id="stop4955"
         style="stop-color:#d3819a;stop-opacity:1"
         offset="0.26238" />
      <stop
         id="stop4957"
         style="stop-color:#b25a64;stop-opacity:1"
         offset="0.704952" />
      <stop
         id="stop4959"
         style="stop-color:#98313d;stop-opacity:1"
         offset="1" />
    </linearGradient>
    <linearGradient
       x1="110.96875"
       y1="976.29968"
       x2="110.99982"
       y2="991.87488"
       id="linearGradient14097-7"
       xlink:href="#linearGradient4145-42"
       gradientUnits="userSpaceOnUse"
       gradientTransform="matrix(1,0,0,1.00011,0,-0.10551)" />
    <linearGradient
       x1="110.96875"
       y1="976.29968"
       x2="110.96875"
       y2="992.375"
       id="linearGradient21742"
       xlink:href="#linearGradient4145-42"
       gradientUnits="userSpaceOnUse"
       gradientTransform="matrix(1.00399,0,0,1.00959,-1.1658,-9.36636)" />
    <clipPath
       clipPathUnits="userSpaceOnUse"
       id="clipPath867">
      <g
         inkscape:label="Clip"
         id="use869">
        <path
           d="m 47.000614,3.0210706 v 0.75 40.5000404 0.72723 h 0.75 32.499399 0.75 v -0.72723 -25.50003 -0.3282 l -0.2344,-0.2343 -14.9059,-15.0000104 -0.1875,-0.1875 h -0.3282 -17.593399 z"
           id="path875"
           style="color:#000000;font-style:normal;font-variant:normal;font-weight:normal;font-stretch:normal;font-size:medium;line-height:normal;font-family:'Andale Mono';text-indent:0pt;text-align:start;text-decoration:none;text-decoration-line:none;letter-spacing:normal;word-spacing:normal;text-transform:none;direction:ltr;text-anchor:start;display:inline;overflow:visible;visibility:visible;fill:#000000;fill-opacity:1;fill-rule:nonzero;stroke:none;stroke-width:1;marker:none"
           inkscape:connector-curvature="0" />
      </g>
    </clipPath>
  </defs>
  <metadata
     id="metadata21749">
    <rdf:RDF>
      <cc:Work
         rdf:about="">
        <dc:format>image/svg+xml</dc:format>
        <dc:type
           rdf:resource="http://purl.org/dc/dcmitype/StillImage" />
        <dc:title></dc:title>
      </cc:Work>
    </rdf:RDF>
  </metadata>
  <path
     style="color:#000000;font-style:normal;font-variant:normal;font-weight:normal;font-stretch:normal;font-size:medium;line-height:normal;font-family:'Andale Mono';text-indent:0pt;text-align:start;text-decoration:none;text-decoration-line:none;letter-spacing:normal;word-spacing:normal;text-transform:none;direction:ltr;text-anchor:start;display:inline;overflow:visible;visibility:visible;fill:#e6e6e6;fill-opacity:1;stroke:none;stroke-width:5.99873972;marker:none"
     d="M 29.705078 -0.083984375 C 27.658234 -0.075805254 25.583577 0.00449542 25.1875 0.013671875 L 7 0.013671875 C 6.813106 -0.004321175 6.624454 -0.004321175 6.4375 0.013671875 C 5.062346 0.27607036 3.975341 1.6123102 4 3.0117188 L 4 45 C 4.00015 46.570313 5.429312 47.99985 7 48 L 41 48 C 42.570687 47.99985 43.99985 46.570313 44 45 L 44 18.818359 C 44.018 18.026395 44.215294 8.8914456 43.664062 8.3222656 L 34.054688 0.24804688 C 33.770027 -0.027426575 31.751922 -0.092163496 29.705078 -0.083984375 z M 31.195312 3.0097656 L 31.328125 10.513672 C 31.340155 11.195372 31.966379 11.80479 32.644531 11.792969 L 40.416016 11.65625 C 40.548988 11.674363 40.684161 11.672765 40.816406 11.650391 L 40.898438 14.679688 L 41 18.771484 L 41 44.271484 L 41 44.998047 L 40.25 44.998047 L 10.486328 44.998047 L 10.486328 3.0214844 L 25.34375 3.0214844 L 25.671875 3.0214844 L 31.195312 3.0097656 z M 26.224609 16.378906 C 24.731409 16.378926 23.288231 16.66947 21.894531 17.25 C 20.509231 17.8306 19.293247 18.650384 18.248047 19.708984 C 17.202847 20.776184 16.398084 22.013175 15.833984 23.421875 C 15.269884 24.830575 14.98828 26.311434 14.988281 27.865234 C 14.988281 29.478834 15.266456 30.989738 15.822266 32.398438 C 16.378066 33.798638 17.186247 35.032409 18.248047 36.099609 C 19.309847 37.166809 20.520359 37.978263 21.880859 38.533203 C 23.241359 39.096673 24.689909 39.378902 26.224609 39.378906 C 27.485509 39.378896 28.725812 39.156841 29.945312 38.712891 C 31.173113 38.277491 32.304797 37.646489 33.341797 36.818359 L 32.009766 34.742188 C 31.271466 35.425197 30.381138 35.967881 29.335938 36.369141 C 28.290738 36.770401 27.244419 36.970701 26.199219 36.970703 C 24.979819 36.970703 23.830353 36.748638 22.751953 36.304688 C 21.681853 35.869288 20.733847 35.233154 19.904297 34.396484 C 19.066497 33.542784 18.422569 32.561072 17.974609 31.451172 C 17.534939 30.332772 17.314448 29.137334 17.314453 27.865234 C 17.314453 26.319934 17.655697 24.8858 18.335938 23.5625 C 19.024438 22.2306 19.983138 21.147227 21.210938 20.310547 C 21.957537 19.806807 22.769088 19.426062 23.648438 19.169922 C 24.527737 18.905272 25.449799 18.773452 26.412109 18.773438 C 27.789209 18.773447 29.066141 19.055681 30.244141 19.619141 C 31.430341 20.182641 32.416978 20.985744 33.205078 22.027344 C 33.694478 22.650544 34.060191 23.336601 34.300781 24.087891 C 34.541341 24.830691 34.662087 25.628682 34.662109 26.482422 C 34.662079 27.822822 34.366314 28.924829 33.777344 29.787109 C 33.188344 30.640819 32.380162 31.148337 31.351562 31.310547 L 31.351562 22.435547 L 28.75 22.435547 L 28.75 24.113281 C 28.50113 23.507121 28.098769 23.032916 27.542969 22.691406 C 26.995469 22.349916 26.353524 22.1797 25.615234 22.179688 C 24.196734 22.179688 23.038498 22.71405 22.142578 23.78125 C 21.246628 24.84845 20.798819 26.235859 20.798828 27.943359 C 20.798728 29.650859 21.243219 31.038269 22.130859 32.105469 C 23.026859 33.164149 24.188334 33.693361 25.615234 33.693359 C 26.353534 33.693359 26.995449 33.526319 27.542969 33.193359 C 28.098749 32.851859 28.50112 32.377644 28.75 31.771484 L 28.75 33.744141 L 29.236328 33.744141 C 31.700128 33.744141 33.606784 33.102866 34.958984 31.822266 C 36.311164 30.541666 36.988254 28.745341 36.988281 26.431641 C 36.988251 25.355941 36.825463 24.330702 36.501953 23.357422 C 36.186753 22.375622 35.717853 21.467549 35.095703 20.630859 C 34.075303 19.256359 32.807162 18.206169 31.289062 17.480469 C 29.770963 16.746299 28.082809 16.378925 26.224609 16.378906 z M 26.050781 24.5625 C 26.797381 24.56251 27.390388 24.864553 27.830078 25.470703 C 28.278018 26.068303 28.501936 26.884969 28.501953 27.917969 C 28.501943 28.959569 28.281457 29.787654 27.841797 30.402344 C 27.402097 31.008514 26.812519 31.31055 26.074219 31.310547 C 25.327619 31.310547 24.734582 31.008514 24.294922 30.402344 C 23.863532 29.796244 23.648429 28.968069 23.648438 27.917969 C 23.648428 26.884969 23.863542 26.068343 24.294922 25.470703 C 24.734522 24.864553 25.320751 24.56251 26.050781 24.5625 z "
     id="path14075" />
</svg>

<svg xmlns="http://www.w3.org/2000/svg" width="48" height="48"><defs><linearGradient id="a"><stop offset="0" stop-color="#dc85e9"/><stop offset="1" stop-color="#f2cbf8"/></linearGradient><linearGradient id="b"><stop offset="0" stop-color="#dc85e9"/><stop offset="1" stop-color="#f2cbf8"/></linearGradient><linearGradient id="c"><stop offset="0" stop-color="#fff" stop-opacity=".588"/><stop offset="1" stop-color="#fff" stop-opacity=".863"/></linearGradient><linearGradient id="d"><stop offset="0" stop-color="#b3b3b3"/><stop offset="1" stop-color="#e6e6e6"/></linearGradient><linearGradient id="e"><stop offset="0" stop-color="#e694bb"/><stop offset=".262" stop-color="#d3819a"/><stop offset=".705" stop-color="#b25a64"/><stop offset="1" stop-color="#98313d"/></linearGradient></defs><path style="line-height:normal;text-indent:0;text-align:start;text-decoration-line:none;text-transform:none;marker:none" d="M29.705-.084c-2.047.008-4.121.088-4.517.098H7a2.938 2.938 0 0 0-.563 0C5.063.276 3.975 1.612 4 3.012V45c0 1.57 1.43 3 3 3h34c1.57 0 3-1.43 3-3V18.818c.018-.792.215-9.927-.336-10.496L34.054.248c-.284-.275-2.302-.34-4.349-.332zm1.49 3.094l.133 7.504c.012.681.638 1.29 1.317 1.279l7.771-.137c.133.018.268.017.4-.006l.082 3.03L41 18.77v26.227H10.486V3.021h15.186l5.523-.011zm-4.97 13.369c-1.494 0-2.937.29-4.33.871-1.386.58-2.602 1.4-3.647 2.459a11.2 11.2 0 0 0-2.414 3.713 11.84 11.84 0 0 0-.846 4.443c0 1.614.278 3.125.834 4.533a10.89 10.89 0 0 0 2.426 3.702 10.88 10.88 0 0 0 3.633 2.433c1.36.564 2.809.846 4.344.846 1.26 0 2.5-.222 3.72-.666a11.647 11.647 0 0 0 3.397-1.895l-1.332-2.076c-.739.683-1.629 1.226-2.674 1.627a8.7 8.7 0 0 1-3.137.602 8.967 8.967 0 0 1-3.447-.666 8.47 8.47 0 0 1-2.848-1.909 8.947 8.947 0 0 1-1.93-2.945 9.713 9.713 0 0 1-.66-3.586c0-1.545.342-2.98 1.022-4.302a8.658 8.658 0 0 1 5.313-4.393 9.542 9.542 0 0 1 2.763-.397c1.377 0 2.654.283 3.832.846a7.922 7.922 0 0 1 2.961 2.408 6.54 6.54 0 0 1 1.096 2.06c.24.744.361 1.542.361 2.395 0 1.34-.296 2.443-.885 3.305-.589.854-1.397 1.361-2.425 1.524v-8.875H28.75v1.677a2.937 2.937 0 0 0-1.207-1.422c-.548-.341-1.19-.511-1.928-.511-1.418 0-2.577.534-3.472 1.601-.896 1.067-1.344 2.455-1.344 4.162 0 1.708.444 3.095 1.332 4.162.896 1.06 2.057 1.588 3.484 1.588.739 0 1.38-.167 1.928-.5a2.937 2.937 0 0 0 1.207-1.422v1.973h.486c2.464 0 4.37-.641 5.723-1.922 1.352-1.28 2.03-3.077 2.03-5.39 0-1.076-.164-2.101-.487-3.075a9.31 9.31 0 0 0-1.406-2.726 10.113 10.113 0 0 0-3.807-3.15c-1.518-.735-3.206-1.102-5.064-1.102zm-.174 8.183c.746 0 1.34.303 1.78.909.447.597.67 1.414.671 2.447 0 1.042-.22 1.87-.66 2.484-.44.607-1.03.909-1.768.909-.746 0-1.34-.302-1.78-.909-.43-.606-.646-1.434-.646-2.484 0-1.033.216-1.85.647-2.447.44-.606 1.026-.908 1.756-.909z" color="#000" font-weight="400" font-family="Andale Mono" overflow="visible" fill="#e6e6e6"/></svg>
